symbols/web/priority_high/materialsymbolsoutlined/priority_high_wght300gradN25_48px.svg

<svg xmlns="http://www.w3.org/2000/svg" height="48" width="48"><path d="M24 39.65q-1.05 0-1.8-.775t-.75-1.825q0-1.05.775-1.8T24 34.5q1.05 0 1.8.75t.75 1.85q0 1-.75 1.775-.75.775-1.8.775ZM21.75 30V7.3h4.5V30Z"/></svg>

<svg xmlns="http://www.w3.org/2000/svg" height="48" width="48"><path d="M24 39.65Q22.95 39.65 22.2 38.875Q21.45 38.1 21.45 37.05Q21.45 36 22.225 35.25Q23 34.5 24 34.5Q25.05 34.5 25.8 35.25Q26.55 36 26.55 37.1Q26.55 38.1 25.8 38.875Q25.05 39.65 24 39.65ZM21.75 30V7.3H26.25V30Z"/></svg>
